lib/flags/s/484.svg

<svg xmlns="http://www.w3.org/2000/svg" fill="none" viewBox="0 0 16 12"><mask id="484_svg__a" width="16" height="12" x="0" y="0" mask-type="alpha" maskUnits="userSpaceOnUse"><path fill="#fff" d="M0 0H16V12H0z"/></mask><g mask="url(#484_svg__a)"><path fill="#D9071E" fill-rule="evenodd" d="M11 0H16V12H11V0Z" clip-rule="evenodd"/><path fill="#006923" fill-rule="evenodd" d="M0 0H6V12H0V0Z" clip-rule="evenodd"/><path fill="#fff" fill-rule="evenodd" d="M5 0H11V12H5V0Z" clip-rule="evenodd"/><path fill="#FCCA3D" fill-rule="evenodd" d="M7.19205 3.95667C7.19205 3.95667 6.84865 4.22299 6.91287 4.50693C6.97709 4.79087 7.65385 4.50693 7.57203 4.2318C7.49022 3.95667 7.19205 3.95667 7.19205 3.95667Z" clip-rule="evenodd"/><path fill="#A8AC71" fill-rule="evenodd" d="M6.6677 4.63402C6.41076 4.63402 6.30364 4.4199 6.35678 4.19232C6.38519 4.0707 6.45895 3.91641 6.57932 3.71594L7.00799 3.97332C6.9621 4.04976 6.92552 4.1161 6.89839 4.17087C6.98826 4.19741 7.07685 4.23685 7.14895 4.28433C7.38241 4.43806 7.46834 4.71198 7.21805 4.91499C7.16961 4.95428 7.09101 5.08824 7.04762 5.21688C7.16704 5.22354 7.2524 5.2415 7.33108 5.28804C7.55208 5.41877 7.53129 5.65717 7.363 5.84128C7.24371 5.97177 7.08445 6.07762 6.93441 6.13184C6.68478 6.22205 6.4177 6.1875 6.4177 5.86792L6.41764 5.86558C6.41714 5.85257 6.41631 5.83032 6.52779 5.8278L6.5495 5.82756L6.5419 5.82752L6.52779 5.8278C6.33757 5.8251 6.29686 5.7244 6.27314 5.54509C6.26713 5.49967 6.2647 5.45644 6.26136 5.36315L6.25914 5.30244L6.25647 5.24332L6.25566 5.23017C6.2519 5.17245 6.2493 5.13248 6.37869 5.13248H6.08865V4.63248H6.37869C6.54319 4.63248 6.63409 4.68803 6.68619 4.80288C6.71519 4.7508 6.74673 4.70177 6.77994 4.65781C6.73811 4.64334 6.6957 4.63402 6.6677 4.63402ZM6.98617 5.51226L6.99395 5.50394C6.9931 5.50487 6.99226 5.50605 6.99145 5.50748L6.98617 5.51226ZM6.76784 5.6605C6.76729 5.66062 6.767 5.66068 6.76711 5.66064L6.76794 5.66048L6.76784 5.6605ZM6.76779 5.47202L6.76882 5.47951L6.76719 5.46503L6.76779 5.47202Z" clip-rule="evenodd"/><path fill="#8F4620" fill-rule="evenodd" d="M9.63323 6.20138C9.63323 6.20138 10.0957 4.83071 9.36054 4.12119C8.62535 3.41168 7.77581 3.45915 7.77581 3.45915C7.77581 3.45915 7.53116 3.64093 7.77581 3.77955C8.02046 3.91818 7.91796 4.05111 7.91796 4.05111C7.91796 4.05111 7.50824 3.63508 7.23625 3.87814C6.96426 4.12119 7.49015 4.0842 7.43448 4.26721C7.37881 4.45022 7.14295 5.26275 7.48759 5.67297C7.83222 6.0832 7.16174 5.99417 7.29811 5.99417C7.43448 5.99417 7.91796 6.08966 7.91796 5.99417C7.91796 5.89868 8.08604 6.36541 8.22988 6.36541C8.37372 6.36541 8.48475 6.20138 8.48475 6.20138C8.48475 6.20138 8.68639 6.36541 8.80925 6.36541C8.93211 6.36541 9.36054 6.25807 9.36054 6.25807L8.55081 5.57581C8.55081 5.57581 8.59962 5.27487 8.48475 5.20974C8.36988 5.14461 9.40564 5.78696 9.48675 5.99417C9.56786 6.20138 9.63323 6.20138 9.63323 6.20138Z" clip-rule="evenodd"/><path fill="#9FAB2F" d="M5.53323 5.86329C5.53323 5.86329 5.6083 5.62401 5.68868 5.6074C5.75832 5.59301 5.90475 5.72207 5.90475 5.72207C6.16487 7.167 6.79383 7.73136 7.83746 7.73136C8.89337 7.73136 9.53333 7.30252 9.90679 5.96989C9.90679 5.96989 10.1053 5.76714 10.1754 5.78968C10.2516 5.81422 10.3472 6.08246 10.3472 6.08246C10.2516 7.64077 9.12659 8.56448 7.85476 8.56448C6.57066 8.56448 5.5222 7.52947 5.53323 5.86329Z"/><path fill="#2FC2DC" fill-rule="evenodd" d="M6.66711 6.82812C6.66711 6.82812 8.16929 7.1468 8.76221 7.1468C9.35513 7.1468 8.24198 7.6307 7.80765 7.6307C7.37331 7.6307 6.66711 6.82812 6.66711 6.82812Z" clip-rule="evenodd"/><rect width="1" height=".536" x="7.333" y="7.05" fill="#F9AA51" rx=".083"/><path fill="#259485" d="M6.08775 6.06793L6.49706 5.78076C7.02978 6.54007 7.82644 6.78987 8.94065 6.52916L9.05457 7.016C7.75206 7.32078 6.74525 7.00509 6.08775 6.06793Z"/><path fill="#FCCA3D" fill-rule="evenodd" d="M8.29566 6.17505C8.29566 6.17505 7.68882 6.49449 7.8911 6.49449 8.09338 6.49449 8.88502 6.65421 8.73098 6.49449 8.57694 6.33477 8.29566 6.17505 8.29566 6.17505zM7.57819 5.79409C7.57819 5.79409 7.46288 5.46106 7.22294 5.46106 6.983 5.46106 7.05073 5.73425 6.93534 5.73425 6.81995 5.73425 7.04285 5.92649 7.1422 5.92649 7.24155 5.92649 7.57819 5.79409 7.57819 5.79409z" clip-rule="evenodd"/></g></svg>

<svg xmlns="http://www.w3.org/2000/svg" fill="none" viewBox="0 0 16 12"><mask id="484_svg__a" width="16" height="12" x="0" y="0" maskUnits="userSpaceOnUse"><path fill="#fff" d="M0 0h16v12H0z"/></mask><g mask="url(#484_svg__a)"><path fill="#D9071E" fill-rule="evenodd" d="M11 0h5v12h-5V0z" clip-rule="evenodd"/><path fill="#006923" fill-rule="evenodd" d="M0 0h6v12H0V0z" clip-rule="evenodd"/><path fill="#fff" fill-rule="evenodd" d="M5 0h6v12H5V0z" clip-rule="evenodd"/><path fill="#FCCA3D" fill-rule="evenodd" d="M7.192 3.957s-.343.266-.279.55c.064.284.74 0 .66-.275-.083-.275-.38-.275-.38-.275z" clip-rule="evenodd"/><path fill="#A8AC71" fill-rule="evenodd" d="M6.668 4.634c-.257 0-.364-.214-.311-.442.028-.121.102-.276.222-.476l.43.257a2.861 2.861 0 00-.11.198.96.96 0 01.25.113c.234.154.32.428.07.631-.05.04-.128.173-.171.302a.6.6 0 01.283.071c.221.13.2.37.032.553-.12.13-.278.237-.429.29-.25.091-.516.057-.516-.263v-.002c0-.013-.002-.036.11-.038h.022-.022c-.19-.003-.231-.104-.255-.283a1.853 1.853 0 01-.012-.182l-.002-.06-.002-.06-.001-.013c-.004-.058-.007-.097.123-.097h-.29v-.5h.29c.164 0 .255.055.307.17.03-.052.06-.101.094-.145a.386.386 0 00-.112-.024zm.318.878l.008-.008-.002.004-.006.004zm-.218.149zm0-.189v.008-.015.007z" clip-rule="evenodd"/><path fill="#8F4620" fill-rule="evenodd" d="M9.633 6.201s.463-1.37-.272-2.08c-.736-.71-1.585-.662-1.585-.662s-.245.182 0 .32c.245.14.142.272.142.272s-.41-.416-.682-.173c-.272.243.254.206.199.39-.056.182-.292.995.053 1.405.344.41-.326.321-.19.321.137 0 .62.096.62 0 0-.095.168.371.312.371s.255-.164.255-.164.201.164.324.164.552-.107.552-.107l-.81-.682s.049-.301-.066-.366.92.577 1.002.784c.08.207.146.207.146.207z" clip-rule="evenodd"/><path fill="#9FAB2F" d="M5.533 5.863s.075-.239.156-.256c.07-.014.216.115.216.115.26 1.445.889 2.01 1.933 2.01 1.055 0 1.695-.43 2.069-1.762 0 0 .198-.203.268-.18.077.024.172.292.172.292-.095 1.559-1.22 2.482-2.492 2.482-1.284 0-2.333-1.035-2.322-2.7z"/><path fill="#2FC2DC" fill-rule="evenodd" d="M6.667 6.828s1.502.319 2.095.319c.593 0-.52.484-.954.484-.435 0-1.14-.803-1.14-.803z" clip-rule="evenodd"/><rect width="1" height=".536" x="7.333" y="7.05" fill="#F9AA51" rx=".083"/><path fill="#259485" d="M6.088 6.068l.41-.287c.532.76 1.328 1.009 2.443.748l.114.487c-1.303.305-2.31-.01-2.967-.948z"/><path fill="#FCCA3D" fill-rule="evenodd" d="M8.296 6.175s-.607.32-.405.32c.202 0 .994.16.84 0a2.353 2.353 0 00-.435-.32zm-.718-.381s-.115-.333-.355-.333-.172.273-.288.273c-.115 0 .108.193.207.193.1 0 .436-.133.436-.133z" clip-rule="evenodd"/></g></svg>
